documentation/heading.svg

<svg xmlns="http://www.w3.org/2000/svg" width="184.8" height="54.6"><g transform="scale(2, 2)"><filter id="dropshadow" height="130%">   <feGaussianBlur in="SourceAlpha" stdDeviation="3"/>   <feOffset dx="2" dy="2" result="offsetblur"/>   <feComponentTransfer xmlns="http://www.w3.org/2000/svg">     <feFuncA type="linear" slope="0.2"/>   </feComponentTransfer>   <feMerge>     <feMergeNode/>     <feMergeNode in="SourceGraphic"/>   </feMerge> </filter><path d="m8.5 0.5 L 82.5 0.5 L 82.5 20.5 L 8.5 20.5 L 8.5 12.5 L 8.5 11.5 L 2.5 11.5 L 2.5 14.5 L 0.5 14.5 L 0.5 6.5 L 2.5 6.5 L 2.5 9.5 L 8.5 9.5 L 8.5 8.5 z" style="fill:#00b700;fill-opacity:1;stroke:#007b00;stroke-width:1;stroke-linecap:round;stroke-opacity:1;filter:url(#dropshadow);" /><text style="font-size:10px;fill:#000000;font-family:Sans;text-anchor:start"><tspan x="10" y="13">heading</tspan></text></g></svg>

<?xml version="1.0" encoding="UTF-8" standalone="no"?>
<!-- Created with Inkscape (http://www.inkscape.org/) -->

<svg
   xmlns:dc="http://purl.org/dc/elements/1.1/"
   xmlns:cc="http://creativecommons.org/ns#"
   xmlns:rdf="http://www.w3.org/1999/02/22-rdf-syntax-ns#"
   xmlns:svg="http://www.w3.org/2000/svg"
   xmlns="http://www.w3.org/2000/svg"
   version="1.1"
   width="166"
   height="42"
   id="svg2">
  <metadata
     id="metadata31">
    <rdf:RDF>
      <cc:Work
         rdf:about="">
        <dc:format>image/svg+xml</dc:format>
        <dc:type
           rdf:resource="http://purl.org/dc/dcmitype/StillImage" />
        <dc:title></dc:title>
      </cc:Work>
    </rdf:RDF>
  </metadata>
  <defs
     id="defs29" />
  <g
     transform="scale(2,2)"
     id="g4">
    <filter
       height="1.3"
       color-interpolation-filters="sRGB"
       id="dropshadow">
      <feGaussianBlur
         id="feGaussianBlur7"
         stdDeviation="3"
         in="SourceAlpha" />
      <feOffset
         id="feOffset9"
         result="offsetblur"
         dy="2"
         dx="2" />
      <feComponentTransfer
         id="feComponentTransfer11">
        <feFuncA
           id="feFuncA13"
           slope="0.2"
           type="linear" />
      </feComponentTransfer>
      <feMerge
         id="feMerge15">
        <feMergeNode
           id="feMergeNode17" />
        <feMergeNode
           id="feMergeNode19"
           in="SourceGraphic" />
      </feMerge>
    </filter>
    <path
       d="m 8.5,0.5 74,0 0,20 -74,0 0,-8 0,-1 -6,0 0,3 -2,0 0,-8 2,0 0,3 6,0 0,-1 z"
       id="path21"
       style="fill:#00b700;fill-opacity:1;stroke:#007b00;stroke-width:1;stroke-linecap:round;stroke-opacity:1" />
    <text
       id="text23"
       style="font-size:10px;text-anchor:start;fill:#000000;font-family:Sans">
      <tspan
         x="10"
         y="13"
         id="tspan25">heading</tspan>
    </text>
  </g>
</svg>
